ui/StatusQ/src/assets/img/icons/network/Network=Ethereum-test.svg

<svg fill="none" height="24" viewBox="0 0 25 24" width="25" xmlns="http://www.w3.org/2000/svg"><path d="m12.8086 24c6.6274 0 12-5.3726 12-12 0-6.62742-5.3726-12-12-12-6.62742 0-12.000006 5.37258-12.000006 12 0 6.6274 5.372586 12 12.000006 12z" fill="#858ccc"/><g fill="#fff"><path d="m13.1826 3v6.65282l5.6228 2.51288z" fill-opacity=".602"/><path d="m13.1833 3-5.62275 9.1657 5.62275-2.51288z"/><path d="m13.1826 16.475v4.5205l5.626-7.7846z" fill-opacity=".602"/><path d="m13.1823 20.9955v-4.5205l-5.62273-3.2641z"/><path d="m13.1826 15.4293 5.6228-3.2641-5.6228-2.51286z" fill-opacity=".2"/><path d="m7.56055 12.1652 5.62275 3.2641v-5.77696z" fill-opacity=".602"/></g></svg>

<svg width="25" height="24" viewBox="0 0 25 24" fill="none" xmlns="http://www.w3.org/2000/svg">
<path d="M12.8086 24C19.436 24 24.8086 18.6274 24.8086 12C24.8086 5.37258 19.436 0 12.8086 0C6.18118 0 0.808594 5.37258 0.808594 12C0.808594 18.6274 6.18118 24 12.8086 24Z" fill="#858CCC"/>
<path d="M13.1826 3V9.65282L18.8054 12.1657L13.1826 3Z" fill="white" fill-opacity="0.602"/>
<path d="M13.1833 3L7.56055 12.1657L13.1833 9.65282V3Z" fill="white"/>
<path d="M13.1826 16.475V20.9955L18.8086 13.2109L13.1826 16.475Z" fill="white" fill-opacity="0.602"/>
<path d="M13.1823 20.9955V16.475L7.55957 13.2109L13.1823 20.9955Z" fill="white"/>
<path d="M13.1826 15.4293L18.8054 12.1652L13.1826 9.65234V15.4293Z" fill="white" fill-opacity="0.2"/>
<path d="M7.56055 12.1652L13.1833 15.4293V9.65234L7.56055 12.1652Z" fill="white" fill-opacity="0.602"/>
</svg>
